src/next/cmd/sc_closemasterview.svg

<svg height="16" viewBox="0 0 4.2333333 4.2333335" width="16" xmlns="http://www.w3.org/2000/svg" xmlns:xlink="http://www.w3.org/1999/xlink"><filter id="a" color-interpolation-filters="sRGB" height="1.072142" width="1.071866" x="-.035933" y="-.036071"><feGaussianBlur stdDeviation=".66434216"/></filter><radialGradient id="b" cx="-55.685837" cy="-347.11612" gradientTransform="matrix(-1.5371199 -.41187002 .44642111 -1.6660663 -3.560274 -986.20032)" gradientUnits="userSpaceOnUse" r="22.14249"><stop offset="0" stop-color="#ce0000"/><stop offset="1" stop-color="#8b0000"/></radialGradient><linearGradient id="c" gradientUnits="userSpaceOnUse" x1="328.12448" x2="336.98077" y1="120.81158" y2="87.759453"><stop offset="0" stop-color="#ff6500"/><stop offset="1" stop-color="#983600"/></linearGradient><clipPath id="d"><circle cx="343.91208" cy="92.325096" r="36" transform="matrix(.86602539 .50000002 .49999965 -.86602561 0 0)"/></clipPath><filter id="e"><feGaussianBlur stdDeviation="2.8805897"/></filter><radialGradient id="f" cx="343.99899" cy="92" gradientTransform="matrix(.77272624 0 0 .77272572 -346.16061 -428.3788)" gradientUnits="userSpaceOnUse" r="36"><stop offset="0" stop-color="#e5ff00"/><stop offset="1" stop-color="#bff500" stop-opacity="0"/></radialGradient><linearGradient id="g" gradientTransform="matrix(0 .85652932 -.85652994 0 57.018252 360.55477)" gradientUnits="userSpaceOnUse" x1="-80.00296" x2="-45.096584" y1="-131.93112" y2="-131.93112"><stop offset="0" stop-color="#fff"/><stop offset="1" stop-color="#fff" stop-opacity="0"/></linearGradient><linearGradient id="h" gradientTransform="matrix(-.84615404 0 0 -.80489557 31.261552 244.46168)" gradientUnits="userSpaceOnUse" x1="0" x2="31.942419" y1="294.88333" y2="274.79138"><stop offset="0" stop-color="#5499ff"/><stop offset=".11366145" stop-color="#5a9cff"/><stop offset=".20296694" stop-color="#80b3ff"/><stop offset=".21468808" stop-color="#7aafff"/><stop offset=".2560246" stop-color="#80b3ff"/><stop offset=".5313" stop-color="#80b3ff"/><stop offset=".8449" stop-color="#80b3ff"/><stop offset="1" stop-color="#80b3ff"/></linearGradient><filter id="i" color-interpolation-filters="sRGB" height="1.0264" width="1.022" x="-.011" y="-.0132"><feGaussianBlur stdDeviation=".1200918"/></filter><filter id="j" color-interpolation-filters="sRGB" height="1.132" width="1.11" x="-.055" y="-.066"><feGaussianBlur stdDeviation=".600459"/></filter><filter id="k" color-interpolation-filters="sRGB" height="1.0528" width="1.044" x="-.022" y="-.0264"><feGaussianBlur stdDeviation=".2401836"/></filter><g transform="scale(.125)"><path d="m2.4287318 271.26587h29.0092052v21.83486h-29.0092052z" fill="#a4a4a4" filter="url(#j)" transform="matrix(-1.09448 0 0 -1.09448 35.466532 325.77731)"/><path d="m1.8599554 271.26588h30.1467556v21.83486h-30.1467556z" fill="#949494" filter="url(#i)" transform="matrix(-1.0531812 0 0 -1.0531812 34.767212 314.12347)"/><path d="m1.7325692 271.26588h30.4015288v21.83486h-30.4015288z" fill="#313131" filter="url(#k)" transform="matrix(-1.0080161 0 0 -1.0080161 34.002412 301.37864)"/><path d="m31.750012 27.51664h-29.63334v-21.16664h29.63334z" fill="#80b3ff" opacity=".99"/><path d="m28.575012 24.34164h-23.28334v-14.81666h23.28334z" fill="url(#h)" opacity=".99"/><g fill="#eee" transform="translate(0 -263.13332)"><path d="m29.633342 288.5333h-1.05833v-16.93333h1.05833z"/><path d="m5.291682 288.5333h-1.05834v-16.93333h1.05834z"/><path d="m28.575002 287.47498v1.05833h-23.28333v-1.05833z"/><path d="m28.575002 271.59995v1.05833h-23.28333v-1.05833z"/><path d="m28.574996 276.89166v1.05833h-23.2833295v-1.05833z"/></g></g><g transform="matrix(.03307292 0 0 .03307292 -2.633552 -7.834184)"><ellipse cx="-248.22359" cy="269.24872" fill="none" rx="37.090855" ry="37.090832" stroke-width="1.030301" transform="matrix(-.96592587 -.25881889 -.25881914 .9659258 0 0)"/><ellipse cx="-59.830322" cy="-331.66757" fill="#292929" filter="url(#a)" rx="22.14249" ry="22.142477" transform="matrix(-1.5649102 .40751746 -.41931615 -1.5208769 -62.623927 -153.42104)"/><ellipse cx="-80.343475" cy="-357.28802" fill="url(#b)" rx="35.236309" ry="35.23629" transform="matrix(-.96592587 .25881888 -.25881888 -.96592587 0 0)"/><circle cx="343.99899" cy="92" r="36" style="opacity:.8;fill:none;stroke-width:6.751382;clip-path:url(#d);stroke:url(#c);filter:url(#e)" transform="matrix(-.94543509 -.25332841 -.2533285 .94543442 518.6138 324.48398)"/><ellipse cx="-80.343567" cy="-357.28802" fill="url(#f)" rx="27.818144" ry="27.818125" stroke-width=".772726" transform="matrix(-.96592583 .25881905 -.25881905 -.96592583 0 0)"/><path d="m170.0789 292.02994c-13.15339 0-24.14425 9.28805-26.79334 21.65413 5.28035 4.92238 15.2995 8.24408 26.79334 8.24408 11.49382 0 21.51295-3.3217 26.7933-8.24408-2.64908-12.36608-13.63992-21.65413-26.7933-21.65413z" fill="url(#g)" opacity=".8" stroke-width="1.427359"/><path d="m145.31992 307.57121 16.23227 16.23227-16.23226 16.23226 8.52667 8.52667 16.23226-16.23226 16.23225 16.23226 8.52667-8.52667-16.23226-16.23226 16.23228-16.23228-8.52666-8.52667-16.23228 16.23228-16.23228-16.23227z" fill="#fff" fill-rule="evenodd"/></g></svg>

<?xml version="1.0" encoding="UTF-8" standalone="no"?>
<svg
   xmlns:dc="http://purl.org/dc/elements/1.1/"
   xmlns:cc="http://creativecommons.org/ns#"
   xmlns:rdf="http://www.w3.org/1999/02/22-rdf-syntax-ns#"
   xmlns:svg="http://www.w3.org/2000/svg"
   xmlns="http://www.w3.org/2000/svg"
   xmlns:xlink="http://www.w3.org/1999/xlink"
   xmlns:sodipodi="http://sodipodi.sourceforge.net/DTD/sodipodi-0.dtd"
   xmlns:inkscape="http://www.inkscape.org/namespaces/inkscape"
   height="16"
   viewBox="0 0 4.2333333 4.2333335"
   width="16"
   version="1.1"
   id="svg129"
   sodipodi:docname="sc_closemasterview.svg"
   inkscape:version="0.92.3 (2405546, 2018-03-11)"
   inkscape:export-filename="/home/rizmut/Dokumen/Rizmut/Github/libreoffice-style-karasa-jaga/build/next/cmd/sc_closemasterview.png"
   inkscape:export-xdpi="96"
   inkscape:export-ydpi="96">
  <metadata
     id="metadata135">
    <rdf:RDF>
      <cc:Work
         rdf:about="">
        <dc:format>image/svg+xml</dc:format>
        <dc:type
           rdf:resource="http://purl.org/dc/dcmitype/StillImage" />
        <dc:title></dc:title>
      </cc:Work>
    </rdf:RDF>
  </metadata>
  <defs
     id="defs133">
    <filter
       style="color-interpolation-filters:sRGB"
       id="j-3"
       height="1.072142"
       width="1.071866"
       x="-0.035932999"
       y="-0.036070999">
      <feGaussianBlur
         stdDeviation=".66434216"
         id="feGaussianBlur77" />
    </filter>
    <radialGradient
       id="k-6"
       cx="-55.685837"
       cy="-347.11612"
       gradientTransform="matrix(-0.91762954,-0.24587809,0.26650439,-0.99460792,-14.509941,-705.18366)"
       gradientUnits="userSpaceOnUse"
       r="22.14249">
      <stop
         offset="0"
         stop-color="#82c133"
         id="stop80" />
      <stop
         offset="1"
         stop-color="#72b028"
         id="stop82" />
    </radialGradient>
    <linearGradient
       id="l-7"
       gradientUnits="userSpaceOnUse"
       x1="328.12448"
       x2="336.98077"
       y1="120.81158"
       y2="87.759453">
      <stop
         offset="0"
         stop-color="#96ff00"
         id="stop85" />
      <stop
         offset="1"
         stop-color="#609800"
         id="stop87" />
    </linearGradient>
    <clipPath
       id="m-5">
      <circle
         cx="343.91208"
         cy="92.325096"
         r="36"
         transform="matrix(0.86602539,0.50000002,0.49999965,-0.86602561,0,0)"
         id="circle90" />
    </clipPath>
    <filter
       id="n-3">
      <feGaussianBlur
         stdDeviation="2.8805897"
         id="feGaussianBlur93" />
    </filter>
    <radialGradient
       id="o-5"
       cx="343.99899"
       cy="92"
       gradientTransform="matrix(0.46130197,0,0,0.46130166,-219.03541,-372.17548)"
       gradientUnits="userSpaceOnUse"
       r="36">
      <stop
         offset="0"
         stop-color="#e5ff00"
         id="stop96" />
      <stop
         offset="1"
         stop-color="#bff500"
         stop-opacity="0"
         id="stop98" />
    </radialGradient>
    <linearGradient
       id="p-6"
       gradientTransform="matrix(0,0.51133072,-0.51133109,0,76.138665,324.51289)"
       gradientUnits="userSpaceOnUse"
       x1="-80.00296"
       x2="-45.096584"
       y1="-131.93112"
       y2="-131.93112">
      <stop
         offset="0"
         stop-color="#fff"
         id="stop101" />
      <stop
         offset="1"
         stop-color="#fff"
         stop-opacity="0"
         id="stop103" />
    </linearGradient>
    <linearGradient
       id="q-2"
       gradientUnits="userSpaceOnUse"
       x1="122.00004"
       x2="122.00004"
       y1="61.999996"
       y2="9.9328432">
      <stop
         offset="0"
         stop-color="#314d00"
         stop-opacity="0"
         id="stop106" />
      <stop
         offset=".5"
         stop-color="#194d00"
         id="stop108" />
      <stop
         offset="1"
         stop-color="#2d4d00"
         stop-opacity="0"
         id="stop110" />
    </linearGradient>
    <filter
       id="r">
      <feGaussianBlur
         stdDeviation="1.04"
         id="feGaussianBlur113" />
    </filter>
    <radialGradient
       id="a-3"
       cx="-32"
       cy="9.6000004"
       gradientTransform="matrix(0.11920158,0.11920158,-0.59600795,0.59600795,13.01637,-1.457733)"
       gradientUnits="userSpaceOnUse"
       r="5.5999999">
      <stop
         offset="0"
         stop-color="#a50606"
         id="stop2-6" />
      <stop
         offset="1"
         stop-color="#f20909"
         id="stop4-7" />
    </radialGradient>
    <filter
       style="color-interpolation-filters:sRGB"
       id="e-5"
       height="1.072142"
       width="1.071866"
       x="-0.035932999"
       y="-0.036070999">
      <feGaussianBlur
         stdDeviation=".66434216"
         id="feGaussianBlur14" />
    </filter>
    <radialGradient
       id="f-3"
       cx="-55.685837"
       cy="-347.11612"
       gradientTransform="matrix(-1.5371199,-0.41187002,0.44642111,-1.6660663,-3.560274,-986.20032)"
       gradientUnits="userSpaceOnUse"
       r="22.14249">
      <stop
         offset="0"
         stop-color="#ce0000"
         id="stop17" />
      <stop
         offset="1"
         stop-color="#8b0000"
         id="stop19" />
    </radialGradient>
    <linearGradient
       id="g-5"
       gradientUnits="userSpaceOnUse"
       x1="328.12448"
       x2="336.98077"
       y1="120.81158"
       y2="87.759453">
      <stop
         offset="0"
         stop-color="#ff6500"
         id="stop22" />
      <stop
         offset="1"
         stop-color="#983600"
         id="stop24" />
    </linearGradient>
    <clipPath
       id="h-6">
      <circle
         cx="343.91208"
         cy="92.325096"
         r="36"
         transform="matrix(0.86602539,0.50000002,0.49999965,-0.86602561,0,0)"
         id="circle27" />
    </clipPath>
    <filter
       id="i-2">
      <feGaussianBlur
         stdDeviation="2.8805897"
         id="feGaussianBlur30" />
    </filter>
    <radialGradient
       id="j-9"
       cx="343.99899"
       cy="92"
       gradientTransform="matrix(0.77272624,0,0,0.77272572,-346.16061,-428.3788)"
       gradientUnits="userSpaceOnUse"
       r="36">
      <stop
         offset="0"
         stop-color="#e5ff00"
         id="stop33-1" />
      <stop
         offset="1"
         stop-color="#bff500"
         stop-opacity="0"
         id="stop35" />
    </radialGradient>
    <linearGradient
       id="k-2"
       gradientTransform="matrix(0,0.85652932,-0.85652994,0,57.018252,360.55477)"
       gradientUnits="userSpaceOnUse"
       x1="-80.00296"
       x2="-45.096584"
       y1="-131.93112"
       y2="-131.93112">
      <stop
         offset="0"
         stop-color="#fff"
         id="stop38" />
      <stop
         offset="1"
         stop-color="#fff"
         stop-opacity="0"
         id="stop40" />
    </linearGradient>
  </defs>
  <sodipodi:namedview
     pagecolor="#ffffff"
     bordercolor="#666666"
     borderopacity="1"
     objecttolerance="10"
     gridtolerance="10"
     guidetolerance="10"
     inkscape:pageopacity="0"
     inkscape:pageshadow="2"
     inkscape:window-width="1366"
     inkscape:window-height="714"
     id="namedview131"
     showgrid="true"
     inkscape:zoom="41.7193"
     inkscape:cx="8.4214251"
     inkscape:cy="10.569206"
     inkscape:window-x="0"
     inkscape:window-y="28"
     inkscape:window-maximized="1"
     inkscape:current-layer="g925">
    <inkscape:grid
       type="xygrid"
       id="grid899" />
  </sodipodi:namedview>
  <linearGradient
     id="a"
     gradientTransform="matrix(-0.84615404,0,0,-0.80489557,31.261552,244.46168)"
     gradientUnits="userSpaceOnUse"
     x1="0"
     x2="31.942419"
     y1="294.88333"
     y2="274.79138">
    <stop
       offset="0"
       stop-color="#5499ff"
       id="stop2" />
    <stop
       offset=".11366145"
       stop-color="#5a9cff"
       id="stop4" />
    <stop
       offset=".20296694"
       stop-color="#80b3ff"
       id="stop6" />
    <stop
       offset=".21468808"
       stop-color="#7aafff"
       id="stop8" />
    <stop
       offset=".2560246"
       stop-color="#80b3ff"
       id="stop10" />
    <stop
       offset=".5313"
       stop-color="#80b3ff"
       id="stop12" />
    <stop
       offset=".8449"
       stop-color="#80b3ff"
       id="stop14" />
    <stop
       offset="1"
       stop-color="#80b3ff"
       id="stop16" />
  </linearGradient>
  <filter
     id="b"
     height="1.0264"
     width="1.022"
     x="-0.011"
     y="-0.0132"
     style="color-interpolation-filters:sRGB">
    <feGaussianBlur
       stdDeviation=".1200918"
       id="feGaussianBlur19" />
  </filter>
  <filter
     id="c"
     height="1.132"
     width="1.11"
     x="-0.055"
     y="-0.066"
     style="color-interpolation-filters:sRGB">
    <feGaussianBlur
       stdDeviation=".600459"
       id="feGaussianBlur22" />
  </filter>
  <filter
     id="d"
     height="1.0528001"
     width="1.044"
     x="-0.022"
     y="-0.0264"
     style="color-interpolation-filters:sRGB">
    <feGaussianBlur
       stdDeviation=".2401836"
       id="feGaussianBlur25" />
  </filter>
  <radialGradient
     id="e"
     cx="84.903702"
     cy="-130.14005"
     gradientTransform="matrix(0.30794145,0.30794145,-0.30794145,0.30794145,46.491338,107.57052)"
     gradientUnits="userSpaceOnUse"
     r="57.039597"
     xlink:href="#f" />
  <linearGradient
     id="f">
    <stop
       offset="0"
       stop-color="#011701"
       id="stop29" />
    <stop
       offset=".80671918"
       stop-color="#145703"
       id="stop31" />
    <stop
       offset="1"
       stop-color="#2fa207"
       stop-opacity=".384314"
       id="stop33" />
  </linearGradient>
  <radialGradient
     id="g"
     cx="43.084476"
     cy="-121.92532"
     gradientTransform="matrix(0.30347528,0.31234377,-0.3628951,0.35259129,39.983519,112.82479)"
     gradientUnits="userSpaceOnUse"
     r="57.039597"
     xlink:href="#f" />
  <radialGradient
     id="h"
     cx="51.991096"
     cy="-78.028419"
     gradientTransform="matrix(0.28232256,0.33158686,-0.56115095,0.47778001,28.065755,119.5934)"
     gradientUnits="userSpaceOnUse"
     r="57.039597"
     xlink:href="#f" />
  <linearGradient
     id="i"
     gradientTransform="scale(1.0975951,0.9110828)"
     gradientUnits="userSpaceOnUse"
     x1="26.091133"
     x2="31.500689"
     xlink:href="#j"
     y1="14.856744"
     y2="14.856744" />
  <linearGradient
     id="j">
    <stop
       offset="0"
       stop-color="#fff"
       id="stop39" />
    <stop
       offset="1"
       stop-color="#fff"
       stop-opacity="0"
       id="stop41" />
  </linearGradient>
  <filter
     id="k"
     height="1.277481"
     width="1.279832"
     x="-0.139916"
     y="-0.138741">
    <feGaussianBlur
       stdDeviation=".28784801"
       id="feGaussianBlur44" />
  </filter>
  <linearGradient
     id="l"
     gradientUnits="userSpaceOnUse"
     x1="304.88663"
     x2="345.62039"
     y1="385.86127"
     y2="384.62384">
    <stop
       offset="0"
       stop-color="#765c44"
       id="stop47" />
    <stop
       offset="1"
       stop-color="#765c44"
       stop-opacity="0"
       id="stop49" />
  </linearGradient>
  <linearGradient
     id="m"
     gradientUnits="userSpaceOnUse"
     spreadMethod="reflect"
     x1="88.606247"
     x2="91.575104"
     y1="13.510336"
     y2="13.510336">
    <stop
       offset="0"
       stop-color="#c8ff87"
       id="stop52" />
    <stop
       offset="1"
       stop-color="#abff87"
       stop-opacity="0"
       id="stop54" />
  </linearGradient>
  <linearGradient
     id="n"
     gradientUnits="userSpaceOnUse"
     spreadMethod="reflect"
     x1="31.606251"
     x2="34.575108"
     y1="13.510336"
     y2="13.510336">
    <stop
       offset="0"
       stop-color="#fff"
       id="stop57" />
    <stop
       offset="1"
       stop-color="#790000"
       stop-opacity="0"
       id="stop59" />
  </linearGradient>
  <radialGradient
     id="o"
     cx="50.424522"
     cy="-81.945961"
     gradientTransform="matrix(0.30794145,0.30794145,-0.30794145,0.30794145,46.491337,107.57052)"
     gradientUnits="userSpaceOnUse"
     r="50.15279">
    <stop
       offset="0"
       stop-color="#7ae91e"
       stop-opacity=".996078"
       id="stop62" />
    <stop
       offset="1"
       stop-color="#62c916"
       id="stop64" />
  </radialGradient>
  <filter
     id="p"
     height="1.024"
     width="1.024"
     x="-0.012"
     y="-0.012"
     style="color-interpolation-filters:sRGB">
    <feGaussianBlur
       stdDeviation=".28192153"
       id="feGaussianBlur67" />
  </filter>
  <linearGradient
     id="q"
     gradientUnits="userSpaceOnUse"
     x1="84.745605"
     x2="97.636749"
     xlink:href="#j"
     y1="48.278454"
     y2="110.57732" />
  <g
     id="g925"
     transform="scale(0.125)">
    <g
       id="g1057">
      <path
         style="fill:#a4a4a4;filter:url(#c)"
         inkscape:connector-curvature="0"
         id="path71"
         transform="matrix(-1.09448,0,0,-1.09448,35.466532,325.77731)"
         d="M 2.4287318,271.26587 H 31.437937 v 21.83486 H 2.4287318 Z" />
      <path
         style="fill:#949494;filter:url(#b)"
         inkscape:connector-curvature="0"
         id="path73"
         transform="matrix(-1.0531812,0,0,-1.0531812,34.767212,314.12347)"
         d="M 1.8599554,271.26588 H 32.006711 v 21.83486 H 1.8599554 Z" />
      <path
         style="fill:#313131;filter:url(#d)"
         inkscape:connector-curvature="0"
         id="path75"
         transform="matrix(-1.0080161,0,0,-1.0080161,34.002412,301.37864)"
         d="M 1.7325692,271.26588 H 32.134098 v 21.83486 H 1.7325692 Z" />
      <path
         style="opacity:0.98999999;fill:#80b3ff"
         inkscape:connector-curvature="0"
         id="path77"
         d="M 31.750012,27.51664 H 2.116672 V 6.35 h 29.63334 z" />
      <path
         inkscape:connector-curvature="0"
         style="opacity:0.98999999;fill:url(#a)"
         id="path79"
         d="M 28.575012,24.34164 H 5.291672 V 9.52498 h 23.28334 z" />
      <g
         style="fill:#eeeeee"
         id="g91"
         transform="translate(0,-263.13332)">
        <path
           inkscape:connector-curvature="0"
           id="path81"
           d="m 29.633342,288.5333 h -1.05833 v -16.93333 h 1.05833 z" />
        <path
           inkscape:connector-curvature="0"
           id="path83"
           d="m 5.291682,288.5333 h -1.05834 v -16.93333 h 1.05834 z" />
        <path
           inkscape:connector-curvature="0"
           id="path85"
           d="m 28.575002,287.47498 v 1.05833 H 5.291672 v -1.05833 z" />
        <path
           inkscape:connector-curvature="0"
           id="path87"
           d="m 28.575002,271.59995 v 1.05833 H 5.291672 v -1.05833 z" />
        <path
           inkscape:connector-curvature="0"
           id="path89"
           d="m 28.574996,276.89166 v 1.05833 H 5.2916665 v -1.05833 z" />
      </g>
    </g>
    <g
       transform="matrix(0.26458334,0,0,0.26458334,-21.068414,-62.673471)"
       id="g71">
      <ellipse
         style="fill:none;stroke-width:1.03030097"
         cx="-248.22359"
         cy="269.24872"
         rx="37.090855"
         ry="37.090832"
         transform="matrix(-0.96592587,-0.25881889,-0.25881914,0.9659258,0,0)"
         id="ellipse57" />
      <ellipse
         style="fill:#292929;filter:url(#e-5)"
         cx="-59.830322"
         cy="-331.66757"
         rx="22.14249"
         ry="22.142477"
         transform="matrix(-1.5649102,0.40751746,-0.41931615,-1.5208769,-62.623927,-153.42104)"
         id="ellipse59" />
      <ellipse
         style="fill:url(#f-3)"
         cx="-80.343475"
         cy="-357.28802"
         rx="35.236309"
         ry="35.23629"
         transform="rotate(165.00001)"
         id="ellipse61" />
      <circle
         cx="343.99899"
         cy="92"
         r="36"
         style="opacity:0.8;fill:none;stroke:url(#g-5);stroke-width:6.75138187;filter:url(#i-2)"
         transform="matrix(-0.94543509,-0.25332841,-0.2533285,0.94543442,518.6138,324.48398)"
         clip-path="url(#h-6)"
         id="circle63" />
      <ellipse
         style="fill:url(#j-9);stroke-width:0.772726"
         cx="-80.343567"
         cy="-357.28802"
         rx="27.818144"
         ry="27.818125"
         transform="rotate(165)"
         id="ellipse65" />
      <path
         style="opacity:0.8;fill:url(#k-2);stroke-width:1.42735898"
         inkscape:connector-curvature="0"
         d="m 170.0789,292.02994 c -13.15339,0 -24.14425,9.28805 -26.79334,21.65413 5.28035,4.92238 15.2995,8.24408 26.79334,8.24408 11.49382,0 21.51295,-3.3217 26.7933,-8.24408 -2.64908,-12.36608 -13.63992,-21.65413 -26.7933,-21.65413 z"
         id="path67" />
      <path
         style="fill:#ffffff;fill-rule:evenodd"
         inkscape:connector-curvature="0"
         d="m 145.31992,307.57121 16.23227,16.23227 -16.23226,16.23226 8.52667,8.52667 16.23226,-16.23226 16.23225,16.23226 8.52667,-8.52667 -16.23226,-16.23226 16.23228,-16.23228 -8.52666,-8.52667 -16.23228,16.23228 -16.23228,-16.23227 z"
         id="path69" />
    </g>
  </g>
</svg>
